X:385
T: Slopes of Sliabh Luachra
S: "Ag Deanamh Ceoil" (CCE)
Z: B.Black
L: 1/8
M: 6/8
R: jig
K: Ador
G|ABA AGE|EDE G3|ABA AGE|ABd efg|
ABA AGE|EDE GAB|c2A BAG|A3 A2 :|
d|e2a aga|aba aga|e2g gfg|gag ged|
e2a aga|aba aga|efg edB|A3 A2 :|
